X: 4200
T: FERMANAGH QUICK STEP
R: Jig
%R: jig, quick-step
B: James Kerr "Merry Melodies" v.4 p.23 #200
Z: 2016 John Chambers <jc:trillian.mit.edu>
M: 6/8
L: 1/8
K: D
uA |\
dfA d2A | dfA d2f | a2f d2f | fee e2A |\
dfA d2A | dfA d2e | f2f ede | d3- d2 :|
|: e |\
f3  gfg | a3  f2a | agg gff | fee efg |\
f3  gfg | a2f d2f | efg fge | edd d2 :|

%%sep 1 1 500
%%sep 1 1 500

